src/pos-icons/umbrella-closed-variant.svg

<svg height="24" viewBox="0 0 24 24" width="24" xmlns="http://www.w3.org/2000/svg"><path d="m15 7-2-1v-2.5c0-.3.2-.5.5-.5s.5.2.5.5v.5h2v-.5c0-1.4-1.1-2.5-2.5-2.5s-2.5 1.1-2.5 2.5v2.5l-2 1-3-1 5.1 15.3c.3.9 1.6.9 1.9 0 1.6-5.1 5-15.3 5-15.3zm-4 8-2-6.1.7.2 1.3-1zm2-6.9 1.3 1 .7-.2-2 6.1z"/></svg>

<?xml version="1.0" encoding="UTF-8"?><!DOCTYPE svg PUBLIC "-//W3C//DTD SVG 1.1//EN" "http://www.w3.org/Graphics/SVG/1.1/DTD/svg11.dtd"><svg xmlns="http://www.w3.org/2000/svg" xmlns:xlink="http://www.w3.org/1999/xlink" version="1.1" id="mdi-umbrella-closed-variant" width="24" height="24" viewBox="0 0 24 24"><path d="M15 7L13 6V3.5C13 3.2 13.2 3 13.5 3S14 3.2 14 3.5V4H16V3.5C16 2.1 14.9 1 13.5 1S11 2.1 11 3.5V6L9 7L6 6L11.1 21.3C11.4 22.2 12.7 22.2 13 21.3C14.6 16.2 18 6 18 6L15 7M11 15L9 8.9L9.7 9.1L11 8.1V15M13 8.1L14.3 9.1L15 8.9L13 15V8.1Z" /></svg>
